X: 30711
T: Oriental, The
R: polka
M: 2/4
K: Gdorian
|:B>A AG|B>A AG|AG/A/ BA|GE _ED|
B>A AG|B>A AG|AG/A/ BA|G2 G>A:|
K: Gmaj
|:B2 BA|GE ED|EA AG/A/|BA A2|
B2 BA|GE ED|EA AB/A/|G2 G>A:|

